X:0590
M:C
L:1/8
Q:1/4=120
K:D
(A3/B//c//)|d2 A>F D2G>A|B<GE>d {d}Tc3 d|ec2  e        dB2d|{cd}e2   E>^G   A2 ::
            DF`A=c BGGF |E2 ed   {d}c2BA|d2(e3/f//g//) fddA|    BG```FE     D2 |]

